dist/img/icons/registration/lorry.svg

<svg width="27" height="27" viewBox="0 0 27 27" fill="none" xmlns="http://www.w3.org/2000/svg">
<g clip-path="url(#clip0)">
<path d="M6.28425 18.6023C5.56631 18.6023 4.98425 19.1843 4.98425 19.9023C4.98425 20.6202 5.56626 21.2023 6.28425 21.2023C7.00224 21.2023 7.58425 20.6203 7.58425 19.9023C7.58343 19.1847 7.00189 18.6031 6.28425 18.6023ZM6.28425 20.3356C6.04492 20.3356 5.85093 20.1416 5.85093 19.9023C5.85093 19.663 6.04492 19.469 6.28425 19.469C6.52358 19.469 6.71756 19.663 6.71756 19.9023C6.71731 20.1415 6.52348 20.3354 6.28425 20.3356Z" fill="white"/>
<path d="M20.151 18.6023C19.433 18.6023 18.851 19.1843 18.851 19.9023C18.851 20.6202 19.433 21.2023 20.151 21.2023C20.8689 21.2023 21.451 20.6203 21.451 19.9023C21.4502 19.1847 20.8686 18.6031 20.151 18.6023ZM20.151 20.3356C19.9116 20.3356 19.7176 20.1416 19.7176 19.9023C19.7176 19.663 19.9117 19.469 20.151 19.469C20.3903 19.469 20.5843 19.663 20.5843 19.9023C20.5841 20.1415 20.3902 20.3354 20.151 20.3356Z" fill="white"/>
<path d="M25.8875 12.4343L22.9024 9.07256C22.6551 8.79407 22.3003 8.63508 21.9278 8.63584H17.9845V6.03584C17.9837 5.3182 17.4021 4.7366 16.6845 4.73584H1.51777C0.800133 4.7366 0.218535 5.3182 0.217773 6.03584V17.3025C0.217723 17.4174 0.263375 17.5277 0.344676 17.609C0.425926 17.6902 0.536172 17.7359 0.651141 17.7359H1.08446V19.0359C1.08522 19.7535 1.66682 20.3351 2.38446 20.3359H3.28572C3.49931 21.8278 4.77727 22.9359 6.28446 22.9359C7.79164 22.9359 9.0696 21.8278 9.28319 20.3359H17.1525C17.366 21.8278 18.644 22.9359 20.1512 22.9359C21.6584 22.9359 22.9363 21.8278 23.1499 20.3359H24.9178C25.6354 20.3351 26.217 19.7535 26.2178 19.0359V13.2984C26.2175 12.9796 26.0999 12.672 25.8875 12.4343ZM1.08446 16.8692V6.03584C1.08471 5.79661 1.27854 5.60273 1.51777 5.60252H16.6845C16.9237 5.60278 17.1176 5.79661 17.1178 6.03584V16.8692H1.08446ZM3.28572 19.4692H2.38446C2.14523 19.4689 1.95134 19.2751 1.95114 19.0358V17.7358H4.16571C3.68969 18.2011 3.38038 18.8103 3.28572 19.4692ZM6.28446 22.0692C5.08785 22.0692 4.11777 21.0991 4.11777 19.9025C4.11777 18.7059 5.08785 17.7358 6.28446 17.7358C7.48107 17.7358 8.45114 18.7059 8.45114 19.9025C8.44972 21.0985 7.48046 22.0678 6.28446 22.0692ZM10.6178 19.4692H9.28314C9.18848 18.8103 8.87923 18.201 8.4032 17.7358H10.6178V19.4692ZM14.5178 19.4692H11.4845V17.7358H14.5178V19.4692ZM17.1524 19.4692H15.3845V17.7358H18.0323C17.5563 18.2011 17.2471 18.8103 17.1524 19.4692ZM20.1511 22.0692C18.9545 22.0692 17.9844 21.0991 17.9844 19.9025C17.9844 18.7059 18.9544 17.7358 20.1511 17.7358C21.3477 17.7358 22.3178 18.7059 22.3178 19.9025C22.3164 21.0985 21.3471 22.0678 20.1511 22.0692ZM25.3511 19.0358C25.3508 19.2751 25.157 19.469 24.9178 19.4692H23.1498C22.9338 17.9786 21.6573 16.8718 20.1511 16.8692H17.9844V9.50252H19.7178V13.8358C19.7185 14.5535 20.3001 15.1351 21.0178 15.1358H25.3511V19.0358ZM25.3511 14.2692H21.0178C20.7785 14.2689 20.5847 14.0751 20.5845 13.8358V9.50252H21.9278C22.0522 9.50181 22.171 9.55452 22.2539 9.64725L25.24 13.0102C25.3111 13.0895 25.3506 13.192 25.3511 13.2984V14.2692H25.3511Z" fill="white"/>
</g>
<defs>
<clipPath id="clip0">
<rect width="26" height="26" fill="white" transform="translate(0.217773 0.835938)"/>
</clipPath>
</defs>
</svg>

<svg width="27" height="27" fill="none" xmlns="http://www.w3.org/2000/svg"><g clip-path="url(#clip0)" fill="#fff"><path d="M6.284 18.602a1.3 1.3 0 100 2.6 1.3 1.3 0 000-2.6zm0 1.734a.433.433 0 110-.867.433.433 0 010 .867zm13.867-1.734a1.3 1.3 0 100 2.6 1.3 1.3 0 000-2.6zm0 1.734a.433.433 0 110-.867.433.433 0 010 .867z"/><path d="M25.887 12.434l-2.985-3.361a1.3 1.3 0 00-.974-.437h-3.944v-2.6a1.3 1.3 0 00-1.3-1.3H1.518a1.3 1.3 0 00-1.3 1.3v11.266a.433.433 0 00.433.434h.433v1.3c.001.717.583 1.3 1.3 1.3h.902a3.03 3.03 0 005.997 0h7.87a3.03 3.03 0 005.997 0h1.768c.717 0 1.299-.582 1.3-1.3v-5.738a1.3 1.3 0 00-.33-.864zM1.084 16.87V6.036c0-.24.195-.433.434-.433h15.166c.24 0 .434.194.434.433v10.833H1.084zm2.202 2.6h-.902a.434.434 0 01-.433-.433v-1.3h2.215a3.026 3.026 0 00-.88 1.733zm2.998 2.6a2.167 2.167 0 110-4.333 2.167 2.167 0 010 4.333zm4.334-2.6H9.283a3.025 3.025 0 00-.88-1.733h2.215v1.733zm3.9 0h-3.034v-1.733h3.034v1.733zm2.634 0h-1.768v-1.733h2.648a3.026 3.026 0 00-.88 1.733zm3 2.6a2.167 2.167 0 110-4.333 2.167 2.167 0 010 4.333zm5.2-3.033a.434.434 0 01-.434.433H23.15a3.035 3.035 0 00-2.999-2.6h-2.167V9.503h1.734v4.333a1.3 1.3 0 001.3 1.3h4.333v3.9zm0-4.767h-4.334a.434.434 0 01-.434-.433V9.503h1.344a.436.436 0 01.326.144l2.986 3.363a.44.44 0 01.111.288v.971z"/></g><defs><clipPath id="clip0"><path fill="#fff" transform="translate(.218 .836)" d="M0 0h26v26H0z"/></clipPath></defs></svg>
